X:350
T:I Hae a Wife o' My Ain
S:Kerr's Merry Melodies Bk.2
Z:Nigel Gatherer
L:1/8
M:9/8
K:Em
EFE G2 A B3|EFE G2 A BGE|EFE G2 A B3|DED d2 B AFD:|
gag fgf e3|EFE G2 A BGE|gag fgf e3|DED d2 B AFD:|
<end>
<start>
